X: 35
T: John Campbell's Trip to Port Townsend
C: Mike Richardson
M: C|
K: G
L: 1/8
|: "G" G2 G2 BGBd | efgf edBd | G2 Bd "Em" gdBG | "Am" AcBA "D" GEDE |
   "G" G2 G2 BGBd | efgf edBd | G2 Bd "Em" gdBG |1 "D" ADFA "G" G2 D2 :|2 "D" ADFA "G" G2 F2 :| \
K:D
|: "Em" E2 GB e3 f | edBA GEB,E | "D" D2 FA dcde | dBAG FEDF |
   "Em" E2 GB e3 f | edBA GEB,E | "D" DEFA dBAD | FEDF "Em" E3 D :|

